material/.icons/material/diving-flippers.svg

<svg xmlns="http://www.w3.org/2000/svg" viewBox="0 0 24 24"><path d="M20.28 3.66c-1-.22-1.74-1.41-2.71-1.62-.97-.21-2.17.55-3.15.33a3.66 3.66 0 00-3.14.34L11.21 17 11 18c-.36 1.62.67 3.22 2.29 3.58 1.61.35 3.21-.67 3.57-2.29l.21-1L23 5.28a3.63 3.63 0 00-2.72-1.62m-5.37 15.2c-.12.55-.66.9-1.21.79-.56-.12-.91-.65-.79-1.22l.86-3.93a1 1 0 011.97.34c0 .04-.01.07-.02.11l-.81 3.91m-5.19 2.48c-.39-.61-.64-1.29-.72-2L8.24 16c-.14-.53.17-1.08.76-1.24a.81.81 0 01.22 0V3.43c-.91 0-2-.57-2.84-.37-.84.2-1.69 1.38-2.66 1.6-1.11.1-2.11.69-2.72 1.62l5.93 13 .21 1a3.003 3.003 0 003.57 2.29h.1c-.43-.35-.81-.76-1.09-1.23z"/></svg>

<?xml version="1.0" encoding="UTF-8"?><!DOCTYPE svg PUBLIC "-//W3C//DTD SVG 1.1//EN" "http://www.w3.org/Graphics/SVG/1.1/DTD/svg11.dtd"><svg xmlns="http://www.w3.org/2000/svg" xmlns:xlink="http://www.w3.org/1999/xlink" version="1.1" id="mdi-diving-flippers" width="24" height="24" viewBox="0 0 24 24"><path d="M20.28,3.66C19.28,3.44 18.54,2.25 17.57,2.04C16.6,1.83 15.4,2.59 14.42,2.37C13.38,2 12.22,2.13 11.28,2.71L11.21,17L11,18C10.64,19.62 11.67,21.22 13.29,21.58C14.9,21.93 16.5,20.91 16.86,19.29L17.07,18.29L23,5.28C22.39,4.35 21.39,3.76 20.28,3.66M14.91,18.86C14.79,19.41 14.25,19.76 13.7,19.65C13.14,19.53 12.79,19 12.91,18.43L13.77,14.5C13.86,13.97 14.37,13.6 14.92,13.69C15.46,13.78 15.83,14.3 15.74,14.84C15.74,14.88 15.73,14.91 15.72,14.95L14.91,18.86M9.72,21.34C9.33,20.73 9.08,20.05 9,19.34L8.24,16C8.1,15.47 8.41,14.92 9,14.76C9.07,14.75 9.15,14.75 9.22,14.76V3.43C8.31,3.43 7.22,2.86 6.38,3.06C5.54,3.26 4.69,4.44 3.72,4.66C2.61,4.76 1.61,5.35 1,6.28L6.93,19.28L7.14,20.28C7.5,21.9 9.09,22.92 10.71,22.57H10.81C10.38,22.22 10,21.81 9.72,21.34Z" /></svg>
